X:383
T:Campbell's Farewell to Redcastle
C:(p. 142)
M:2/4
L:1/8
K:Dmaj
%
uA | "D"D>E FG | Ad A>G | FD D(E/2F/2) | "C"G>E =CE |
%
"D"D>E FG | Ad A>G | "D"F(E/2D/2) "C"=CE | "D"D2 {/D}D :|
%
(=c3/4B/4) | "D"Ad d(=c/2B/2) | Ad A>G | "D"FD D(E/2F/2) | "C"G>E =C(c/2B/2) |
%
"D" Ad d(=c/2B/2) | Ad AG | "D"F(E/2D/2) "C"=CE | "D"D2 {/D}D (=c3/4B/4) |
%
"D"Ad d(=c/2B/2) | Ad A>G | "D"FD D(E/2F/2) | "C"G>E =CE |
%
"D"(D/2E/2F/2G/2) (F/2G/2A/2B/2) | "D"(A/2B/2c/2d/2) (A>G) | \
"D"F(E/2D/2) "C"=CE | "D"D2 {/D}D B|]
|:"D" A2 AB|d2 BA|"C" GE =CE|GE G=c|
"D" A2 AB|d2 BA|"C" GE =cE|1"D"ED DB:|2"D"ED D2||

